cireg/static/images/flash.svg

<svg xmlns="http://www.w3.org/2000/svg" width="161" height="266" viewBox="0 0 161 266">
  <path fill="#0C638D" fill-rule="evenodd" d="M109.127316,2.9003343 L3.05533712,127.789061 C-4.01637957,136.115484 1.87671767,150.388698 13.662535,150.388698 L74.9507463,150.388698 L31.3422039,258.629147 C28.984965,264.57632 36.0566817,268.144624 40.7711595,264.57632 L157.456371,123.031703 C165.707084,113.516227 158.63499,98.0539579 145.670176,98.0539579 L91.4536816,98.0539579 L124.455026,12.414669 C126.812265,2.89919245 115.026071,-4.23741497 109.13335,2.89919245 L109.127316,2.9003343 Z" opacity=".2"/>
</svg>

<svg xmlns="http://www.w3.org/2000/svg" width="161" height="266"><path fill="#0C638D" fill-rule="evenodd" d="M109.127 2.9L3.055 127.79c-7.071 8.325-1.178 22.599 10.608 22.599H74.95l-43.609 108.24c-2.357 5.947 4.715 9.516 9.43 5.947l116.684-141.544c8.251-9.516 1.179-24.978-11.786-24.978H91.454l33.001-85.64c2.357-9.515-9.429-16.651-15.322-9.515l-.006.001z" opacity=".2"/></svg>
